X:1
T:Lieder eines fahrenden Gesellen
T:Die zwei blauen Augen
T:4. Die zwei blauen Augen
T:Gustav Mahler
T:Gustav Mahler
T:Lieder eines fahrenden Gesellen
T:OpenScore (CC0)
T:OpenScore (CC0)
T:OpenScore (CC0)
T:OpenScore (CC0)
C:Gustav Mahler
Z:Gustav Mahler
Z:OpenScore (CC0)
%%score ( 1 2 ) { ( 3 5 ) | ( 4 6 ) }
L:1/8
Q:1/4=100
M:4/4
K:G
V:1 treble nm="Voice"
V:2 treble 
V:3 treble nm="Piano"
V:5 treble 
V:4 bass 
V:6 bass 
V:1
!pp!"^Alla Marcia""^Durchaus mit geheimnissvoll schwermüthigem Ausdruck (nicht schleppen)""^Quite mysteriously melancholy expression (not dragging)" E F | %1
w: Die zwel|
 G3/2 G/ G G z G E F | G2 z2 z G F G | A2 A A A G F G | A4 z2 (GA) |!<(! B2 B2 B2 B2!<)! | %6
w: blau- en Au- gen von mei- nem|Schatz, die ha- ben|mich in die wei- te Welt ge-|schickt. Da *|musst' ich Ab- schied|
!>(! (B3 =c) B2 B2!>)! |!>(! (Bg) g2!>)!!pp! (gf) (fe) |[M:5/4] e4 z2 z2"^espress." (EF) | %9
w: neh- * men vom|al- * ler- lieb- * sten *|Platz! O *|
[M:4/4] G3/2 G/ G2 z !^!G E F |[M:5/4] G3/2 G/ G3/2 G/ G2 z2 (FG) | %11
w: Au- gen blau wa- rum habt|ihr mich an- ge- blickt!? Nun *|
[M:4/4]!<(! A3 A (AB/A/G)!<)!!p! A | (!^!c2!>(! !^!B4 !^!A2-) | %13
w: hab' ich e- * * * wig|Leid * *|
 A2!>)!!p! (3(!^!G!^!=F!^!E) (G2 ^F2) |[M:5/4] E2 z2 z4 z2 |[M:4/4] z8 | z8 ||[K:C] z4 z2!p! C D | %18
w: * und * * Grä- *|men!|||Ich bin|
 E3 E E E z D | _E3/2 E/ E2 z2!pp! (CD) | =E3 E E2 (_AG) |!<(! F6 _A!p! G!<)! | %22
w: aus- ge- gan- gen in|stil- ler Nacht, in *|stil- ler Nacht wohl *|ü- ber die|
!<(! F2 (_AG)!<)!!mp!!>(! (F2 AG) | E2!>)!!p! z2 z4 | z8 | G2 G2 (Gc) c c | _B3 _A G2 (G_d) | %27
w: dunk- le * Hai- * *|de;||hat mir Nie- * mand A-|de ge- sagt. A- *|
 c4 z2 (!^!c=B) | _B2 (!^!BA) !breath!_A2 (A G | F6 (_AG) | =E2 (_AG) (F2 AG) | E2) z2 z4 | z8 | %33
w: de! A- *|de! A- * de! Mein  Ge-|sell' war *|Lieb' und * Lei- * *|de!||
[Q:1/4=97] z8[Q:1/4=95] |[Q:1/4=92] z8[Q:1/4=89] |[Q:1/4=85] z4 z4 | z8 | z8 | z8 ||[K:F] z8 | %40
w: |||||||
 z4 z2"^Leise, bis zum Schluss""^(Quietly, until the end)" C F | F3 F F2 (GA) | (Ac) c2 c2 (cf) | %43
w: Auf der|Stra- sse steht ein *|Lin- * den- baum, da *|
!pp! f2 f f f (g/f/) e f | c3 A c2 z2 | z4 F2 F G | (Ac) c2 c2 c2 | (Bd) c B A G F G | %48
w: hab' ich zum er- sten * Mal im|Schlaf ge- ruht!|Un- ter dem|Lin- * den- baum! Der|hat * sei- ne Blü- then ü- ber|
 (Ac) c2 c2 z2 | z8 | z4 z2 c2 | c2 c2 (cf) f f | _e3 _d c2 (c_g) | f6 ((f!breath!=e)) | %54
w: mich * ge- schneit||da|wusst' ich nicht, * wie das|Le- ben thut war *|Al- les, *|
 _e2 (e=d) _d2 (dc) | B4 z2 (_dc) | A2 (_dc) B2 (dc) | A4[Q:1/4=117] z4 | A4 A2 z2[Q:1/4=115] | %59
w: Al- les * wie- der *|gut! Ach, *|Al- les * wie- der *|gut!|Al- les!|
[Q:1/4=110] A4[Q:1/4=105] A2 z2 |[Q:1/4=100] F4[Q:1/4=95] z2 D2 |[Q:1/4=90] F4 z2[Q:1/4=85] C2 | %62
w: Al- les!|Lieb' und|Leid, und|
 A,4 z2 C2 |[Q:1/4=80] A,4 z4 | z8 |[Q:1/4=75] z8 | z8 | !fermata!z8 |] %68
w: Welt, und|Traum!|||||
V:2
 x2 | x8 | x8 | x8 | x8 | x8 | x8 | (Be) e2 (GF) (FE) |[M:5/4] E4 x4 x2 |[M:4/4] x8 |[M:5/4] x10 | %11
[M:4/4] x8 | x8 | x8 |[M:5/4] x10 |[M:4/4] x8 | x8 ||[K:C] x8 | x8 | x8 | x8 | x8 | x8 | x8 | x8 | %25
 x8 | x8 | x8 | x8 | x8 | x8 | x8 | x8 | x8 | x8 | x8 | x8 | x8 | x8 ||[K:F] x8 | x8 | x8 | x8 | %43
 x8 | x8 | x8 | x8 | x8 | x8 | x8 | x8 | x8 | x8 | x8 | x8 | x8 | x8 | x8 | x8 | x8 | x8 | x8 | %62
 x8 | x8 | x8 | x8 | x8 | x8 |] %68
V:3
 (.[G,E].[B,F]) | (.[B,EG]>.[B,EG] .[B,EG]2) z2 (.[CE].[B,F]) | %2
 (.[B,EG]2 .[B,EG]>.[B,EG] .[B,EG]2) z2 | (.[DFA]2 .[DFA]>.[DFA] .[DFA]>.[DEG].[DF]>.[DEG]) | %4
 (.[DFA]2 .[DFA]>.[DFA] .[DFA]2)!pp!!<(! ([EG][FA]) | B2 (.B2 .B2 .B2)!<)! |!>(! B4- B!>)! z B2 | %7
 B2 [Bg]2 ([Bg][Af]) ([Af][Ge]) |[M:5/4] [GBe]4 z2 z2 (.[G,E].[B,F]) | %9
[M:4/4] (.[B,EG]>.[B,EG] .[B,EG]2) z2 (.[CE].[B,F]) | %10
[M:5/4] (.[B,EG]2 .[B,EG]>.[B,EG] .[B,EG]2) z2 (F[EG]) | %11
[M:4/4]!<(! [DFA]3 [DFA] ([FA]2 [EG][FA])!<)! |!mp! ([Ac]2!>(! [GB]4 [=FA]2- | %13
 [FA]2 (G4) [^D^F]2!>)! |[M:5/4] .[G,B,E]2) z2 z4 (.[G,E].[B,F]) | %15
[M:4/4]!pp! (.[B,EG]>.[B,EG] .[B,EG]2) z2 (.[CE].[B,F]) | [B,EG]2 (.[B,EG]>.[B,EG] .[B,EG]2) z2 || %17
[K:C] z4 z2 (.[F,C].[G,D]) | (!tenuto![G,CE]3 .[G,CE] .[G,CE]2) (.[_A,C].[G,D]) | %19
 [G,C_E]>[G,CE] [G,CE]2 z2 (.[_A,C].[G,D]) | [G,C=E]3 [G,CE]!<(! [G,CE]2 (!^![F_A][EG] | %21
 [DF]6) ([F_A][EG]!<)! |!p!!<(! ([DF]8)!<)! |!p! (.=E>).E .E2) z2 (.[_A,C].[G,D]) | %24
 [G,C_E]3 [G,CE] [G,CE]2 (.[=E,C].[G,D]) | ([C=E]2 [_D=F]2 [CE][G,=D] (3[=E,C][G,D][CE] | %26
 [_DF]6) (G_d) | (.[=EGc]4 .[_EG=B]4) | (!tenuto![DF_B]3 .[^CFA] .[=CF_A]2) ([FA][_EG] | %29
 [_DF]6) ([F_A]G | =E2) (!^!_AG F2 !^!AG | %31
"_(ohne Nachschlage)""_(without grace-note i.e. without the turned ending on trill)" [CE]8-) | %32
 [CE]6 (.[_A,C].[G,D]) | (.[G,C_E]>.[G,CE] .[G,CE]2) z2 (.[A,C].[G,D]) | %34
 (!tenuto![G,C=E]3 .[G,CE] .[G,CE]2) z2 | z4 [G,C_E]>[G,CE] [G,CE]2 | z8 | z8 | z2 (.C2 .C2 .C2) || %39
[K:F] C2 C2 C2 C2 | [A,C]2 [A,C]2 [A,C]2 ([A,C]F) | [A,CF]3 [A,CF] [A,CF]2 ([FG]A) | %42
 ([CFA]c) [FAc]2 [FAc]2 [FAc]2 | ([Acf]2 .[Acf].[Acf]) (fg/f/ .[Ace].[Acf]) | %44
 [FAc]3 [CFA] [FAc]2!ppp! ([FAc]2 | [Acf]2 .[Acf].[cfg]) ([cfa]2 g/f/e/d/) | %46
 ([FAc]3 [CFA] [FAc]2) ([Ac]2 | [GB][Bd][Ac][GB] [FA][EG][DF][EG]) | %48
 ([FA][Ac][fa]>[Ac] [fa]2) ([Ac]2 | [FAc][GB][Bd][GB] [FA][EG][DF][EG]) | %50
 [F_A]2 ([CFA]>C) [CFA]2 (.[_DF].[CG]) | ([F=A]2 [CG]2 [A,F][CG] (3[FA][GB][Ac]) | [_GB]6 (c_g) | %53
 ([Acf]3 .[_Ac=e] [Gc_e]2) z2 | (.[GB_e]2 ([GBe][^FB=d])) (.[=FB_d]2 ([_DBd][=Ac])) | %55
 ([GB][B=d][Ac][GB] [FA][=EG][DF][EG]) | A2 (_dc) B2 (dc | [FA])z/([Ac]/ [fa]3 [ec'][df][_dg]) | %58
 ([ca]3 [df]/B/ [Ac][Fd][DB][Ec]) | ([FA][Ec] [FA]4) ((!^![B,D]2 | [CF]6)) (([B,D]2 | %61
 [CF]6))"^morendo" [G,C]2 | x6 C2 | x8 | x8 | x4 z2!ppp! (.[_df].[cg]) | %66
 (.[cf_a]>.[cfa] .[cfa]2) z2 (.[_df].[cg]) | [cf_a]2 [cfa]>[cfa] !fermata![cfa]2 z2 |] %68
V:4
!pp! z2 | [E,,,E,,]2 [B,,E,G,]2 z4 | [E,,,E,,]2 [B,,E,G,]>[B,,E,G,] [B,,E,G,]2 z2 | %3
 [D,,,D,,]2 (.[D,F,A,]>.[D,F,A,] [D,F,A,]2) z2 | [D,,,D,,]2 [D,F,A,]2 z4 | %5
 [G,,,G,,]2 [D,G,B,]2 G,,2!p! [E,G,B,]2 | [B,,,B,,]2 [B,,F,A,]>[B,,F,A,] [B,,F,A,]!pp! z z2 | %7
 [E,,,E,,]2 [G,,,G,,][A,,,A,,] [B,,,B,,]2 B,,,2 |[M:5/4] E,,2 (.[B,EG]>.[B,EG] .[B,EG]2) z2 z2 | %9
[M:4/4] [E,,,E,,]2 [B,,E,G,]2 z4 |[M:5/4] [E,,,E,,]2 (.[B,,E,G,]>.[B,,E,G,] .[B,,E,G,]2) z2 z2 | %11
[M:4/4] D,,2 [D,A,C]2 D,,2 [D,A,C]2 | [G,,,G,,]2 [D,G,B,]2 [A,,,A,,]2 [C,=F,A,]2 | %13
 (.[B,,,B,,]2 .[C,,C,]2 .[A,,,A,,]2!p! .[B,,,B,,]2) | %14
[M:5/4]!p! [E,,,E,,]2 (.[B,,E,G,]>.[B,,E,G,] .[B,,E,G,]2) z2 z2 | %15
[M:4/4]!ppp! [E,,,E,,]2 [B,,E,G,]2 z4 | [E,,,E,,]2 (.[B,,E,G,]>.[B,,E,G,] .[B,,E,G,]2) z2 || %17
[K:C]!pp!"^immer\nmit Ped."!ped! (.[C,,C,]2 .[G,,,G,,]2 .[C,,C,]2 .[G,,,G,,]2)!ped-up! | %18
 [C,,C,]2 [G,,,G,,]2 [C,,C,]2 [G,,,G,,]2 | [C,,C,]2 [G,,,G,,]2 [C,,C,]2!pp! [G,,,G,,]2 | %20
 [C,,C,]2 [G,,,G,,]2 [C,,C,]2 [G,,,G,,]2 | z3/2 G,/ (G,>_A,) A,4- | (_A,2 =A,2 _B,2 (T=B,2{A,B,} | %23
 [G,C]>))[G,C] [G,C]2 x4 | [C,,C,]2 [G,,,G,,]2 [C,,C,]2!pp! [G,,,G,,]2 | %25
 [C,,C,]2 [G,,,G,,]2 [C,,C,]2 [G,,,G,,]2 | [C,,C,]2 [G,,,G,,]2 [C,,C,]2 [G,,,G,,]2 | %27
 [C,,C,]2 [G,,,G,,]2 [C,,C,]2 [G,,,G,,]2 | [C,,C,]2 [G,,,G,,]2 [C,,C,]2 [G,,,G,,]2 | %29
 z2"^m. d." (_A,=A, _B,2 =B,2 | C4) (_D2 T=B,2{=A,_B,} | .G,2) (T_A,2 .G,2) (TA,2 | %32
 .G,2) (T_A,2 .G,2) x2 | %33
"^morendo    -             -                -                 -               -             -             -           -           -            -" [C,,C,]2 [G,,,G,,]2 [C,,C,]2 [G,,,G,,]2 | %34
 [C,,C,]2 [G,,,G,,]2 [C,,C,]2 [G,,,G,,]2 | [C,,C,]2 [G,,,G,,]2 [C,,C,]2 [G,,,G,,]2 | %36
 [C,,C,]2 z2 [G,,,G,,]2 z2 | ([C,,C,] .C,2 .C,2 .C,2 C,- | C,) C,2 C,2 C,2 C,- ||[K:F] x8 | %40
 (.F,,.C,.F,.C, .F,,.C,.F,.C,) | (.F,,.C,.F,.C, .F,,.C,.F,.C,) | (.F,,.C,.F,.C, x2 !^!G,2) | %43
 !^!A,2 !^!G,2 !^!F,2 !^!G,2 | (A,2 G,/F,/E,/D,/) (C,C,F,G, | [F,,A,]C,G,C, [F,,F,]C,G,C,) | %46
 ([F,,A,]C, G,/F,/E,/D,/) [F,,C,](F,G,A,) | (F,,C,G,C, F,,C,B,C,) | (F,,C,A,C, F,,C,A,C,) | %49
 (F,,C,G,C, F,,C,B,C,) | (F,,C,F,C,) (F,,C,F,C,) | (F,,C,F,C, F,,C,F,C,) | (F,,C,_G,C, F,,C,B,C,) | %53
 (F,,C,=A,C, F,,C,G,C,) | (F,,C,F,C,) (F,,C,_G,C,) | F,,C,=G,C, F,,C,B,C, | F,,C,F,C, F,,C,F,C, | %57
 F,,C,F,"^poco rit."C, F,,C,F,C, | F,,C,F,C, F,,C,F,C, | F,,C,F,C, F,,C,F,C, | %60
 F,,C,F,C, F,,C,F,C, | F,,C,F,C, F,,C,F,C, | [F,A,]6 G,2 | [F,A,]6 [C,G,-]2 | %64
!ppp! [C,G,]4 [_D,F,]4- | [D,F,]4 !^![F,,,F,,]4 | [F,,,F,,]2[K:treble] [CF_A]2 z4 | %67
[K:bass] [F,,,F,,]2[K:treble] [CF_A]>[CFA] !fermata![CFA]2 z2 |] %68
V:5
 x2 | x8 | x8 | x8 | x6 D2 | [DG]2 ([GB][FA]) ([FA][EG])([EG][^DF]) | %6
 [^DF]2 (3(.[^CE].[B,D].[CE]) [DF] z ([EG][FA]) | G2 G2 B2 B2 |[M:5/4] x10 |[M:4/4] x8 | %10
[M:5/4] x8 D2 |[M:4/4] x4 D4 | D4 (C4 | D2) E2 C2 A,2 |[M:5/4] x10 |[M:4/4] x8 | x8 ||[K:C] x8 | %18
 x8 | x8 | x8 | x8 | x4!mp!!>(! x4!>)! | x8 | x8 | x8 | x6 F2 | x8 | x8 | x8 | x8 | x8 | x8 | x8 | %34
 x8 | x8 | x8 | x8 | x8 || %39
[K:F] (3C[I:staff +1]A,!pp!C,[I:staff -1] (3C[I:staff +1]A,C,[I:staff -1] (3C[I:staff +1]A,C,[I:staff -1] (3C[I:staff +1]A,C, | %40
 x8 |[I:staff -1] x6 C2 | x8 | x4 [Ac]2 x2 | x8 | x6 [Ac]2 | x6 FE | (D4 C4) | x4 x2 C2 | (D4 C4) | %50
 (=B,C) x2 x4 | x8 | x6 B2 | x8 | x8 | (=D4 C4) | FC A2 _G2 =E2 | x8 | x8 | x8 | x8 | x8 | x8 | %63
 x8 | x8 | x8 | x8 | x8 |] %68
V:6
 x2 | x8 | x8 | x8 | x8 | x8 | x8 | x8 |[M:5/4] x10 |[M:4/4] x8 |[M:5/4] x10 |[M:4/4] x8 | x8 | %13
 x8 |[M:5/4] x10 |[M:4/4] x8 | x8 ||[K:C] x8 | x8 | x8 | x8 | %21
 [C,,C,]2 [G,,,G,,]2 [C,,C,]2 [G,,,G,,]2 | [C,,C,]2 [G,,,G,,]2 [C,,C,]2 [G,,,G,,]2 | %23
 [C,,C,]2 [G,,,G,,]2 [C,,C,]2!p! [G,,,G,,]2 | x8 | x8 | x8 | x8 | x8 | %29
 [C,,C,]2 [G,,,G,,]2 [C,,C,]2 [G,,,G,,]2 | [C,,C,]2 [G,,,G,,]2 [C,,C,]2 [G,,,G,,]2 | %31
 [C,,C,]2 [G,,,G,,]2 [C,,C,]2 [G,,,G,,]2 | [C,,C,]2 [G,,,G,,]2 [C,,C,]2 [G,,,G,,]2 | x8 | x8 | x8 | %36
 x8 | x8 | x8 ||[K:F] C, C,2 C,2 (.C,.F,,.C,) | x8 | x8 | x4 .F,,.C,.G,.C, | F,,C,G,C, F,,C,G,C, | %44
 F,,C, G,/F,/E,/D,/ F,,C,F,G, | x8 | x8 | x8 | x8 | x8 | x8 | x8 | x8 | x8 | x8 | x8 | x8 | x8 | %58
 x8 | x8 | x8 | x8 | F,,C,F,C, F,,C,F,C, | F,,C,F,C, F,,C,F,C,- | !^![F,,,F,,]4 !^![F,,,F,,]4 | %65
 !^![F,,,F,,]4 x4 | x2[K:treble] x6 |[K:bass] x2[K:treble] x6 |] %68

